X:1
T:Title
%%score { 1 | 2 }
L:1/8
M:4/4
K:A
V:1 treble nm="Grand Piano"
V:2 bass 
V:1
 z4 z2 z[Q:1/4=88] [CE] | [DF][CE][DB][CA] [Fd][Ec][CA][Ec] | [^Dc][DB][DF][Dc] [DB]3 [DB] | %3
 cBGF [DF][CE][CA][CA] | [^DA][DF][DG][DA] [=DB]3 [DE] | [DF][CE][DB][CA] [Fd][Ec][CA][Ec] | %6
 [^Dc][DB][DF][Dc] [DB]3 B | BcB[FA] [EG][FA][GB]A |[M:3/4] GG [^DG][DF] E2 |[M:1/4] EE | %10
[M:4/4] [DF] [CE]2 [CA] [Ec]2 [^D=c][E^c] | [=Ge] [Fd]2 F B2 BA | G G2 G F2 EE |[M:3/4] c6 | %14
[M:1/4] [CE][CE] |[M:4/4] [DF] [CE]2 [CA] [Ec]2 [^D=c][E^c] | [=Ge] [Fd]2 F B2 BA | G G2 E c2 B2 | %18
[M:7/8] [CA]-[CA]-[CA]- [CA]3 z |] %19
V:2
 z4 z2 z [A,,A,] | [A,,A,][A,,A,][A,,E,][A,,E,] [A,,A,][A,,A,][A,,E,][A,,A,] | %2
 [B,,F,][B,,F,][B,,B,][B,,F,] [B,,F,]3 [B,,A,] | %3
 [E,G,D][E,G,D][E,B,D][E,G,D] [A,,A,][A,,A,][A,,E,][A,,A,] | %4
 [B,,F,][B,,B,][B,,B,][B,,F,] [E,G,]3 [E,G,] | %5
 [A,,A,][A,,A,][A,,E,][A,,E,] [A,,A,][A,,A,][A,,E,][A,,A,] | %6
 [B,,F,][B,,F,][B,,B,][B,,F,] [B,,F,]3 [A,B,^D] | %7
 [G,B,E][G,B,E][F,B,^D][^D,B,] [E,B,][E,B,][E,E][K:treble][A,CF] | %8
[M:3/4] [B,E][K:bass][B,E] [B,,B,][B,,A,] [E,G,B,]2 |[M:1/4] [E,G,D][E,G,D] | %10
[M:4/4] [A,,A,] [A,,A,]2 [A,,E,] [A,,A,]2 [A,,A,][A,,A,] | %11
 [D,A,] [D,A,]2 [D,A,D] [D,F,D]2 [D,F,D][D,B,D] | [E,B,D] [E,B,D]2 [E,B,D] [E,A,D]2 .[E,G,D]2 | %13
[M:3/4] [A,E]6 |[M:1/4] [A,,A,][A,,A,] |[M:4/4] [A,,A,] [A,,A,]2 [A,,E,] [A,,A,]2 [A,,A,][A,,A,] | %16
 [D,A,] [D,A,]2 [D,A,D] [D,F,D]2 [D,F,D][D,B,D] | [E,B,D] [E,B,D]2 [E,G,D] [E,A,E]2 [E,G,D]2 | %18
[M:7/8] [A,,E,]-[A,,E,]-[A,,E,]- [A,,E,]3 z |] %19

